assets/svg/fb.svg

<svg width="32" height="32" viewBox="0 0 32 32" fill="none" xmlns="http://www.w3.org/2000/svg">
<path d="M13.04 29.333L13 17.666H8V12.666H13V9.33302C13 4.84002 15.787 2.66602 19.8 2.66602C21.72 2.66602 23.373 2.79902 23.853 2.86602V7.57302H21.066C18.893 7.57302 18.466 8.61302 18.466 10.133V12.666H24.666L22.999 17.666H18.466V29.333H13.039H13.04Z" fill="white"/>
</svg>

<!-- Generated by IcoMoon.io -->
<svg version="1.1" xmlns="http://www.w3.org/2000/svg" width="32" height="32" viewBox="0 0 32 32">
<title>fb</title>
<path fill="#fff" d="M13.040 29.333l-0.040-11.667h-5v-5h5v-3.333c0-4.493 2.787-6.667 6.8-6.667 1.92 0 3.573 0.133 4.053 0.2v4.707h-2.787c-2.173 0-2.6 1.040-2.6 2.56v2.533h6.2l-1.667 5h-4.533v11.667h-5.427z"></path>
</svg>
